X:1
T:A Few More Marchings Weary
T:A Few More Marchings Weary
T:William Howard Doane
T:Frances Jane (Fanny) Crosby, 1882
T:Public Domain, Courtesy of the Cyber Hymnal™
T:Public Domain, Courtesy of the Cyber Hymnal™
C:William Howard Doane
Z:Public Domain,
Z:Courtesy of the Cyber Hymnal™
%%score ( 1 2 ) ( 3 4 )
L:1/8
M:4/4
K:A
V:1 treble 
V:2 treble 
V:3 bass 
V:4 bass 
V:1
 [EA]2 | [Ec]4 [EA]4 | [FB]2 [FA]2 [DF]2 [DA]2 | [CE]3 [CE] [EA]2 [Ec]2 | [EB]6 [EA]2 | %5
w: 1.~A|few more|march- ings wea- ry,|then we’ll ga- ther|home! A|
w: 2.~A|few more|nights of weep- ing,|then we’ll ga- ther|home! A|
w: 3.~A|few more|sweet links brok- en,|then we’ll ga- ther|home! A|
 [Ec]4 [EA]4 | [FB]2 [FA]2 [DF]2 [DA]2 | [CE]3 [EA] [Ec]2 [DB]2 | [CA]6 [EA]2 | %9
w: few more|storm clouds drea- ry,|then we’ll ga- ther|home! A|
w: few more|watch- es keep- ing,|then we’ll ga- ther|home! A|
w: few more|kind words spok- en,|then we’ll ga- ther|home! A|
 [DB]2 [DG]2 [DF]2 [DE]2 | C2 [B,D]2 [CE]2 [EA]2 | [DB]2 [DG]2 [DF]2 [DE]2 | %12
w: few more days the|cross to bear, And|then with Christ a|
w: few more vic- t’ries|o- ver sin, A|few more sheaves to|
w: few more part- ings|on the strand, And|then a- way to|
 C2 [B,D]2 [CE]2 [CA]2 | [Ec]4 [EA]4 | [FB]2 [FA]2 [DF]2 [DA]2 | [CE]3 [EA] [Ec]2 [DB]2 | [CA]8 || %17
w: crown to wear; A|few more|march- ings wea- ry,|then we’ll ga- ther|home!|
w: ga- ther in, A|few more|march- ings wea- ry,|then we’ll ga- ther|home!|
w: Ca- naan’s land: A|few more|march- ings wea- ry,|then we’ll ga- ther|home!|
"^Refrain" [Fd]4 [DF]4 | [DF]2 [CE]2 [CE]2 [CA]2 | [DB]4 [DG]4 | [DG]2 [DF]2 [CE]2 [EA]2 | %21
w: ||||
w: O’er time’s|ra- pid ri- ver,|soon we’ll|rest for- ev- er;|
w: ||||
 [Ec]4 [EA]4 | [FB]2 [FA]2 [DF]2 [DA]2 | [CE]3 [EA] [Ec]2 [DB]2 | [CA]6 |] %25
w: ||||
w: No more|march- ings wea- ry|when we ga- ther|home!|
w: ||||
V:2
 x2 | x8 | x8 | x8 | x8 | x8 | x8 | x8 | x8 | x8 | C2 x6 | x8 | C2 x6 | x8 | x8 | x8 | x8 || x8 | %18
 x8 | x8 | x8 | x8 | x8 | x8 | x6 |] %25
V:3
 [A,,C]2 | [A,,A,]4 [C,A,]4 | [D,A,]2 [D,A,]2 [D,A,]2 [F,A,]2 | A,3 A, [C,A,]2 [A,,A,]2 | %4
 [E,G,]6 [A,,C]2 | [A,,A,]4 [C,A,]4 | [D,A,]2 [D,A,]2 [D,A,]2 [D,F,]2 | %7
 [E,A,]3 [E,C] [E,A,]2 [E,G,]2 | [A,,A,]6 [C,A,]2 | [E,G,]2 [E,B,]2 [E,A,]2 [E,G,]2 | %10
 [A,,A,]2 [A,,E,]2 [A,,A,]2 [C,A,]2 | [E,G,]2 [E,B,]2 [E,A,]2 [E,G,]2 | %12
 [A,,A,]2 [A,,E,]2 [A,,A,]2 [A,,E,]2 | [A,,A,]4 [C,A,]4 | [D,A,]2 [D,A,]2 [D,A,]2 [D,F,]2 | %15
 [E,A,]3 [E,C] [E,A,]2 [E,G,]2 | [A,,A,]8 || [D,A,]2 [D,A,]2 [D,A,]2 [D,A,]2 | %18
 [A,,A,]2 [A,,A,]2 [A,,A,]2 [A,,E,]2 | [E,G,]2 [E,G,]2 [E,B,]2 [E,B,]2 | %20
 [E,B,]2 [E,G,]2 [A,,A,]2 [A,,C]2 | [A,,A,]4 [C,A,]4 | [D,A,]2 [D,A,]2 [D,A,]2 [D,F,]2 | %23
 [E,A,]3 [E,C] [E,A,]2 [E,G,]2 | [A,,A,]6 |] %25
V:4
 x2 | x8 | x8 | A,3 A, x4 | x8 | x8 | x8 | x8 | x8 | x8 | x8 | x8 | x8 | x8 | x8 | x8 | x8 || x8 | %18
 x8 | x8 | x8 | x8 | x8 | x8 | x6 |] %25

